!!!OTL: Die Koenigskinder.
!!!OTL-incipit: ES WAREN ZWEI KOENIGSKINDER
!!!ARE: Europa, Mitteleuropa, Deutschland
!!!SCT: F0882
!!!TXL: @@DE
!!!YEM: Copyright 1995, estate of Helmut Schaffrath.
**kern	**text
*ICvox	*
*M6/8	*
*k[b-e-]	*
*g:	*
!LO:TX:a:t=Mäßig langsam.	!
{8d	1._Es
=1	=1
8g	waren
8g	.
8a	ʒwei
8.b-L	Kö-
16aJ	.
8b-/	-nigs-
=2	=2
(4g	-kin-
8b-/)	.
4a}	-der,
{8b-/	die
=3	=3
8.g	hat-
16f#	-ten
8g	ein-
8a	-an-
8g	-der
8d	ſo
=4	=4
[4.g	lieb,
4g]}	.
{16gL	ſie
16aJ	.
=5	=5
8.b-	konn-
16b-	-ten
8b-	bei-
8dd	-ſam-
8cc	-men
8b-	nicht
=6	=6
8.a/L	kom-
16b-	.
8ccJ	-men,
4b-/}	.
{8a	das
=7	=7
8.g	Waſſer
16f#	.
8g	war
8aL	viel
8gJ	.
8f#	ʒu
=8	=8
[4.g	tief.
4g]}	.
==	==
!!!AGN: erzaehlendes Volks - Lied, Ballade, Liebe, Tod
!!!ONB: ESAC (Essen Associative Code) Database: FINK
!!!AMT: compound duple
!!!AIN: vox
!!!EED: Helmut Schaffrath
!!!EEV: 1.0
!!!GTL: Romanzen und Balladen.
!!!source: Musikalischer Hausschatz der Deutschen. Eine Sammlung von über 1000 Liedern und Gesängen mit Singstimmen und Klavierbegleitung. Leipzig, Litterarisches Verlags-Haus.
!!!page: 633
!!!ENC: Anna Maria Matuszewska
!!!EEV: 2025/03/19
*-	*-
